src/icons/light-rain.svg

<svg
    width="32"
    height="31"
    viewBox="0 0 32 31"
    fill="none"
    xmlns="http://www.w3.org/2000/svg"
  >
    <path
      d="M20.4844 4.17969C21.0107 4.17969 21.4512 3.72852 21.4512 3.20215V0.978516C21.4512 0.441406 21.0107 0.000976562 20.4844 0.000976562C19.9473 0.000976562 19.5068 0.441406 19.5068 0.978516V3.20215C19.5068 3.72852 19.9473 4.17969 20.4844 4.17969ZM14.1035 6.25293C14.4902 6.63965 15.1133 6.62891 15.4785 6.25293C15.8438 5.8877 15.8545 5.27539 15.4785 4.89941L13.8994 3.29883C13.5234 2.92285 12.9004 2.93359 12.5352 3.29883C12.1592 3.6748 12.1592 4.29785 12.5352 4.67383L14.1035 6.25293ZM25.4795 6.26367C25.8447 6.62891 26.4785 6.63965 26.8545 6.25293L28.4336 4.67383C28.8096 4.29785 28.8096 3.6748 28.4336 3.30957C28.0576 2.93359 27.4453 2.93359 27.0693 3.30957L25.4795 4.89941C25.1035 5.26465 25.1143 5.8877 25.4795 6.26367ZM23.3418 15.835C24.8887 14.793 25.8555 13.1494 25.8555 11.248C25.8555 8.27246 23.46 5.87695 20.4844 5.87695C18.5186 5.87695 16.8105 6.91895 15.9189 8.46582C16.3809 8.93848 16.7783 9.4541 17.1113 10.0879C20.6025 10.3564 22.9873 12.5908 23.3418 15.835ZM4.63965 22.0332H16.5635C19.625 22.0332 21.9883 19.7021 21.9883 16.6729C21.9883 13.6221 19.5605 11.334 16.2842 11.3232C15.0703 9.00293 12.8574 7.49902 10.0752 7.49902C6.50879 7.49902 3.50098 10.249 3.17871 13.8369C1.32031 14.374 0.12793 15.9531 0.12793 17.8867C0.12793 20.3467 1.96484 22.0332 4.63965 22.0332ZM28.5195 12.2148H30.7432C31.2803 12.2148 31.71 11.7852 31.71 11.2588C31.71 10.7217 31.2803 10.2812 30.7432 10.2812H28.5195C27.9932 10.2812 27.542 10.7217 27.542 11.2588C27.542 11.7852 27.9932 12.2148 28.5195 12.2148ZM27.0693 19.208C27.4453 19.584 28.0576 19.584 28.4336 19.208C28.7988 18.832 28.7988 18.2197 28.4229 17.8438L26.8438 16.2646C26.4678 15.8994 25.8555 15.8887 25.4795 16.2646C25.1035 16.6406 25.1035 17.2529 25.4795 17.6289L27.0693 19.208ZM13.2227 27.2539L14.6084 24.8584C14.8232 24.5039 14.7158 24.0957 14.3613 23.8916C14.0176 23.6875 13.6201 23.8057 13.4053 24.1602L12.0195 26.5771C11.8154 26.9102 11.9121 27.3184 12.2666 27.5225C12.6104 27.7158 13.0293 27.5977 13.2227 27.2539ZM4.68262 27.2646L6.06836 24.8691C6.27246 24.5146 6.16504 24.1064 5.82129 23.9023C5.4668 23.6982 5.06934 23.8164 4.86523 24.1709L3.46875 26.5879C3.27539 26.9209 3.36133 27.3291 3.72656 27.5332C4.07031 27.7266 4.48926 27.6084 4.68262 27.2646ZM16.5957 30.2725L17.9814 27.877C18.1855 27.5225 18.0781 27.1143 17.7344 26.9102C17.3799 26.7061 16.9932 26.8242 16.7783 27.1787L15.3818 29.5957C15.1885 29.9287 15.2852 30.3369 15.6396 30.541C15.9834 30.7344 16.4023 30.6162 16.5957 30.2725ZM8.04492 30.2832L9.43066 27.8877C9.64551 27.5332 9.53809 27.125 9.18359 26.9209C8.83984 26.7168 8.44238 26.835 8.22754 27.1895L6.8418 29.6064C6.6377 29.9395 6.73438 30.3477 7.08887 30.5518C7.43262 30.7451 7.85156 30.627 8.04492 30.2832Z"
      fill="white"
    />
  </svg>

<svg xmlns="http://www.w3.org/2000/svg" width="32" height="31" fill="none"><path fill="#fff" d="M20.484 4.18a.986.986 0 0 0 .967-.978V.98A.979.979 0 0 0 20.484 0a.981.981 0 0 0-.977.978v2.223c0 .527.44.978.977.978Zm-6.38 2.073a.97.97 0 0 0 1.375 0 .963.963 0 0 0 0-1.354l-1.58-1.6a.976.976 0 0 0-1.364 0 .979.979 0 0 0 0 1.375l1.569 1.579Zm11.376.01a.98.98 0 0 0 1.375-.01l1.579-1.58a.966.966 0 0 0 0-1.363.966.966 0 0 0-1.365 0L25.48 4.9c-.375.365-.365.988 0 1.364Zm-2.138 9.572c1.547-1.042 2.514-2.686 2.514-4.587a5.36 5.36 0 0 0-5.372-5.371c-1.965 0-3.674 1.042-4.565 2.589.462.472.86.988 1.192 1.622 3.491.268 5.876 2.503 6.23 5.747ZM4.64 22.033h11.924c3.061 0 5.424-2.33 5.424-5.36 0-3.05-2.427-5.339-5.704-5.35C15.07 9.003 12.857 7.5 10.075 7.5c-3.566 0-6.574 2.75-6.896 6.338-1.859.537-3.051 2.116-3.051 4.05 0 2.46 1.837 4.146 4.512 4.146Zm23.88-9.818h2.223a.96.96 0 0 0 .967-.956.972.972 0 0 0-.967-.978H28.52a.988.988 0 0 0-.978.978c0 .526.451.956.977.956Zm-1.45 6.993a.966.966 0 0 0 1.364 0 .976.976 0 0 0-.011-1.364l-1.58-1.58a.976.976 0 0 0-1.363 0 .966.966 0 0 0 0 1.365l1.59 1.579Zm-13.847 8.046 1.385-2.396a.674.674 0 0 0-.247-.966c-.343-.204-.74-.086-.956.268l-1.385 2.417a.663.663 0 0 0 .247.945.694.694 0 0 0 .956-.268Zm-8.54.01 1.385-2.395a.69.69 0 0 0-.247-.967c-.354-.204-.752-.086-.956.269L3.47 26.588a.666.666 0 0 0 .258.945.694.694 0 0 0 .956-.268Zm11.913 3.009 1.385-2.396a.69.69 0 0 0-.247-.967c-.354-.204-.74-.086-.956.269l-1.396 2.417a.674.674 0 0 0 .258.945.694.694 0 0 0 .956-.268Zm-8.551.01 1.386-2.395a.674.674 0 0 0-.247-.967c-.344-.204-.742-.086-.956.268l-1.386 2.417a.663.663 0 0 0 .247.946.694.694 0 0 0 .956-.269Z"/></svg>
